!!!!SEGMENT: pl-kc--40102-iii-1-saf--001-044_zielenski-mikolaj--offertoria-totius-anni-motteto-de-s-stanislao-ortus-de-polonia-stanislaus.krn
!!!cenid: 16xx:1523
!!!COM: Zieleński, Mikołaj
!!!COM-rismid: pe30013481
!!!CDT:
!!!CNT: Polish
!!!GTL: Offertoria totius anni
!!!OTL: Motteto de S. Stanislao/Ortus de Polonia Stanislaus
!!!OMV: 044
!!!PDT: 1611
!!!AGN:
!!!SMS-siglum: PL-Kc
!!!SMS-shelfmark: 40102 III/1 Saf.
!!!SMS-shelfwork: 001-044 G
!!!SMS-variant:
!!!SMS-altvar:
!!!NIFC-rismid: 990069886
!!!URL-scan: https://cyfrowe.mnk.pl/dlibra/publication/24235/edition/23926/content?ref=desc
!!!ONB-nifc: UWAGA: str. 38-39 Uwaga: W xml metrum 2/1 do źródłowego C| i odpowiednio 3/1 do 3/2
!!!key: F:lyd
**kern	**kern	**kern	**kern
*group1	*group1	*group1	*group1
*part4	*part3	*part2	*part1
*staff4	*staff3	*staff2	*staff1
*I""Organo	*I	*I	*
*Iorgan	*Iorgan	*Iorgan	*Iorgan
*ICklav	*ICklav	*ICklav	*ICklav
*clefF4	*clefC1	*clefF3	*clefG2
*k[b-]	*k[b-]	*k[b-]	*k[b-]
*F:lyd	*F:lyd	*F:lyd	*F:lyd
*M2/1	*M2/1	*M2/1	*M2/1
*met(C|)	*met(C|)	*met(C|)	*met(C|)
=1	=1	=1	=1
!LO:TX:t=P:problem:all/middle:global	!LO:TX:t=P:problem:all/middle:global	!LO:TX:t=P:problem:all/middle:global	!LO:TX:t=P:problem:all/middle:global
!LO:TX:t=P:problem:all\middle:global	!LO:TX:t=P:problem:all\middle:global	!LO:TX:t=P:problem:all\middle:global	!LO:TX:t=P:problem:all\middle:global
!	!	!LO:TX:t=P:problem:zdwojony znak przykluczowy	!
!	!	!LO:TX:a:t=Ortns de Polonia Staniſlaus.	!LO:TX:a:t=Motteto de S. Staniſlao.   A 8;
00r	00r	1.F	1.cc
.	.	2F/	2ff\
=2-	=2-	=2-	=2-
.	.	2.c\	2.ee\
.	.	4A\	4ff\
.	.	2B-\	2dd\
.	.	2G\	2ee\
=3	=3	=3	=3
0r	0r	2F/	2ff\
.	.	1F	1ff
.	.	2C/	2ee\
=4-	=4-	=4-	=4-
1r	1r	1G	1dd
[y1C	[y1cc	2C/	2cc\
.	.	[<2E/	[<2gg\
=5	=5	=5	=5
!LO:N:vis=4:xstem:cue	!LO:N:vis=4:xstem:cue	!	!
2C]	2cc]	2E/]	2gg\]
2C/	2cc\	2C/	2ee\
2.FF/	2.cc\	2.C/	2.ff\
4FF/	4cc\	4C/	4ff\
=6-	=6-	=6-	=6-
2BB-/	2b-\	2D/	2dd\
2GG/	2b-\	2D/	2dd\
2D/	2a\	2D/	2dd\
2DD/	2dd\	2D/	2ff\
=7	=7	=7	=7
2DD/	2dd\	2D/	2ff\
2DD/	2.dd\	2D/	2ff\
1AA	.	1E	1ee
.	8cc#X\	.	.
!	!LO:SIC:v:s:t=8bn	!	!
.	8b-\	.	.
.	2cc#\	.	.
=8-	=8-	=8-	=8-
1DD	1dd	2D/	2dd\
.	.	2.d\	2.dd\
1r	1r	.	.
.	.	4d\	4dd\
!	!	!LO:N:acc=#	!
.	.	2Bn\	2dd\
=9	=9	=9	=9
00r	00r	2c\	2ee\
.	.	4A\	4ff\
.	.	2B-\	2dd\
.	.	4G\	4ee\
.	.	4.F/	4.ff\
.	.	8F/	8ff\
=10-	=10-	=10-	=10-
.	.	2c\	2ee\
.	.	1G	2.gg\
.	.	.	4ff\
.	.	2G\	4ee\
.	.	.	4dd\
=11	=11	=11	=11
0r	0r	2A\	2cc\
.	.	2F/	2.ff\
.	.	1c	.
.	.	.	8ee\
.	.	.	8dd\
.	.	.	2ee\
=12-	=12-	=12-	=12-
2r	2r	1F	1ff
!	!LO:TX:t=P:problem:fragment miejscami niezbyt harmonicznie brzmi	!	!
2.FF/	2.cc\	.	.
.	.	1r	1r
4FF/	4cc\	.	.
2FF/	2cc\	.	.
=13	=13	=13	=13
!LO:TX:b:t=Partitura Nicolai Zielenski.	!	!	!
2BB-/	2f/	00r	00r
4GG/	4g/	.	.
2D/	2a\	.	.
4BB-/	4b-\	.	.
4.AA/	4.cc\	.	.
8AA/	8cc#X\	.	.
=14-	=14-	=14-	=14-
!	!LO:SIC:v:s:t=2bn	!	!
2GG/	2b-\	.	.
2.D/	2ccny\	.	.
.	2g/	.	.
4BB-/	.	.	.
4AA/	2.ccny\	.	.
4GG/	.	.	.
=15	=15	=15	=15
2FF/	.	00r	00r
.	4b-\	.	.
2FF/	4a\	.	.
.	4g/	.	.
2BB-/	4f/	.	.
.	4d/	.	.
2GG/	1g\	.	.
=16-	=16-	=16-	=16-
2.AA/	.	.	.
.	2.f/	.	.
4BB-/	.	.	.
1C	.	.	.
.	8e/	.	.
.	8d/	.	.
.	2e/	.	.
=17	=17	=17	=17
!LO:SIC:v:s:t=1FF	!	!	!
1GG	1f	0r	0r
1r	1r	.	.
=18-	=18-	=18-	=18-
!LO:TX:b:t=E 4	!	!	!
1.FF	1.cc	1.C	1.ff
2FF/	2cc\	2C/	2ff\
!LO:SIC:v:t=custos C	!LO:SIC:v:t=custos cc	!LO:SIC:v:t=custos C	!LO:SIC:v:t=custos ee
!LO:PB:g=original	!LO:PB:g=original	!LO:PB:g=original	!LO:PB:g=original
=19	=19	=19	=19
1.C	1.cc	4C/	2.ee\
.	.	4D/	.
.	.	4E/	.
.	.	4F/	4dd\
.	.	2G\	4ee\
.	.	.	4ff\
2C/	2cc\	2G\	1gg\
=20-	=20-	=20-	=20-
1.GG	1.dd	1.G	.
.	.	.	2gg\
.	.	.	2.gg\
2GG/	2dd\	2D/	.
.	.	.	4gg\
=21	=21	=21	=21
2D/	2dd\	2F/	2ff\
1BB-	1dd	1F	1ff
2BB-/	2dd\	2BB-/	2ff\
=22-	=22-	=22-	=22-
1FF	1cc	1.C	1ff
1FF	2cc\	.	2cc\
.	[<2dd\	2AA/	[<2ff\
=23	=23	=23	=23
!	!	!LO:N:acc=#	!
1.GG	2dd\]	2BBn/	2ff\]
.	2.cc\	2C/	2ee\
.	.	2.D/	1dd
!	!LO:N:acc=#	!	!
.	8bn\	.	.
.	8a\	.	.
2GG/	2b\	.	.
.	.	4D/	.
=24-	=24-	=24-	=24-
1CC	1cc	1C	1ee
1rEE	1r	1.F	1.ff
=25	=25	=25	=25
00r	00r	.	.
.	.	2c\	2ee\
.	.	4G\	2.dd\
.	.	4A\	.
.	.	4B-\	.
.	.	4c\	8cc\
.	.	.	8b-\
=26-	=26-	=26-	=26-
.	.	2d\	4a/
.	.	.	4b-/
.	.	2A\	2cc\
.	.	2B-\	2.b-/
.	.	2G\	.
.	.	.	4b-/
=27	=27	=27	=27
00r	00r	2F/	2a/
.	.	1D	2.ff\
.	.	.	4ff\
.	.	2E/	2ee\
=28-	=28-	=28-	=28-
.	.	2F/	4dd\
.	.	.	4cc\
.	.	2C/	2.cc\
.	.	1G	.
!	!	!	!LO:N:acc=#
.	.	.	8bn/
.	.	.	8a/
.	.	.	2b/
=29	=29	=29	=29
1.C	1.g	1C	1ee
.	.	1r	1r
2FF/	2a\	.	.
=30-	=30-	=30-	=30-
4BB-/	2.f/	0r	0r
4C/	.	.	.
4D/	.	.	.
4E\	4g/	.	.
1.F	4a\	.	.
.	4b-\	.	.
.	1cc\	.	.
=31	=31	=31	=31
.	.	00r	00r
2E\	2g/	.	.
2.D/	2f/	.	.
.	2f/	.	.
4D/	.	.	.
=32-	=32-	=32-	=32-
2C/	2e/	.	.
1GG	1g	.	.
2AA/	4f/	.	.
.	4e/	.	.
=33	=33	=33	=33
2BB-/	4d/	0r	0r
.	4e/	.	.
2FF/	2.f/	.	.
1C	.	.	.
.	8e/	.	.
.	8d/	.	.
.	2e/	.	.
=34-	=34-	=34-	=34-
1FF	1f	1r	1r
1.C	1.g	1.C	1.gg
=35	=35	=35	=35
.	.	.	.
2GG/	2dd\	2D/	2gg\
4BB-/	2.dd\	2D/	2.ff\
4C/	.	.	.
4D/	.	2F/	.
4E\	8cc\	.	8ee\
.	8b-\	.	8dd\
=36-	=36-	=36-	=36-
2F\	2a\	0F	2cc\
2BB-/	2dd\	.	2ff\
1F	1cc	.	1ff
=37	=37	=37	=37
1BB-	1dd	2F/	2ff\
.	.	2B-\	2dd\
1r	1r	2G\	2gg\
.	.	2c\	2ee\
=38-	=38-	=38-	=38-
0r	0r	4F/	4ff\
.	.	2B-\	2dd\
.	.	4G\	4ee\
.	.	2D/	2ff\
.	.	2A\	2ee\
=39	=39	=39	=39
2r	2r	1D	1dd
2BB-/	2dd\	.	.
2E-X\	2b-\	1r	1r
2C/	2cc\	.	.
=40-	=40-	=40-	=40-
4F\	4a\	0r	0r
2BB-/	2b-\	.	.
4GG/	4b-\	.	.
4.AA/	2a\	.	.
8BB-/	.	.	.
2C/	2g/	.	.
=41	=41	=41	=41
4FF/	4a\	1r	1r
4F\	4a\	.	.
4D/	4g/	.	.
4BB-/	4b-\	.	.
2FF/	2a\	4r	4r
.	.	4F/	4cc\
2r	2r	4D/	4dd\
.	.	4BB-/	4dd\
=42-	=42-	=42-	=42-
4r	4r	2F/	2cc\
4F\	4a\	.	.
4D/	4f/	2r	2r
4BB-/	4b-\	.	.
2FF/	2a\	4r	4r
.	.	4F/	4cc\
2r	2r	4D/	4dd\
.	.	4BB-/	4dd\
!LO:SIC:v:t=custos F	!	!LO:SIC:v:t=custos F	!LO:SIC:v:t=custos cc
!LO:LB:g=original	!LO:LB:g=original	!LO:LB:g=original	!LO:LB:g=original
=43	=43	=43	=43
4r	4r	2F/	2cc\
4F\	4a\	.	.
4D/	4f/	2r	2r
4BB-/	4b-\	.	.
2FF/	2a\	4r	4r
.	.	4F/	4cc\
2r	2r	4D/	4ff\
.	.	4G\	4dd\
=44-	=44-	=44-	=44-
4r	4r	2C/	2ee\
4C/	4g/	.	.
4AA/	4a\	2r	2r
4FF/	4a\	.	.
2C/	2g/	4r	4r
.	.	4c\	4ee\
2r	2r	4A\	4cc\
.	.	4F/	4ff\
=45	=45	=45	=45
4r	4r	2c\	2ee\
4C/	4g/	.	.
4AA/	4a\	2r	2r
4FF/	4a\	.	.
2C/	2g/	4r	4r
.	.	4c\	4ee\
2r	2r	4A\	4cc\
.	.	4F/	4ff\
=46-	=46-	=46-	=46-
4r	4r	2c\	2ee\
4C/	4g/	.	.
4AA/	4a\	2r	2r
4FF/	4a\	.	.
2C/	2g/	4r	4r
.	.	4C/	4ee\
2GG/	[<2dd\	[<2D/	4gg\
.	.	.	[<4dd\
=47	=47	=47	=47
2D/	2dd\]	2D/]	4dd\]
.	.	.	2ff\
2DD/	2dd\	2D/	.
.	.	.	4dd\
2AA/	2cc-X\	2AA/	2ee\
2AA/	2cc-\	2E/	2ee\
=48-	=48-	=48-	=48-
1DD	1dd	1.D	1ff#X
1GG	1dd	.	1.gg
.	.	2D/	.
=49	=49	=49	=49
1EE	1ee	2G\	.
.	.	1E	2gg\
1AA	1cc	.	1ee
.	.	1C/	.
=50-	=50-	=50-	=50-
1.FF	0cc	.	1.ff
.	.	2C/	.
.	.	1C	.
2FF/	.	.	[<2cc\
=51	=51	=51	=51
0CC	0cc	1.C	2cc\]
.	.	.	4b-/
.	.	.	4a/
.	.	.	2g/
.	.	2C/	2cc\
=52-	=52-	=52-	=52-
*lig	*	*	*
1FF	1a	1C	1cc
1.BB-	[y1b-	2.BB-/	2.dd\
.	.	4C/	4ee\
*Xlig	*	*	*
=53	=53	=53	=53
!	!LO:N:vis=4:xstem:cue	!	!
.	2b-]	4D/	2ff\
.	.	4BB-/	.
2AA/	2cc\	1F	2cc\
0.BB-	1.b-	.	2.dd\
.	.	2F/	.
.	.	.	4cc\
=54-	=54-	=54-	=54-
*	*	*lig	*
.	.	1F	4b-/
.	.	.	4f/
.	1f	.	4b-/
.	.	.	4cc\
.	.	1BB-	2dd\
.	1b-\	.	2dd\
*	*	*Xlig	*
=55-	=55-	=55-	=55-
[0FFl	.	[0Cl	[0ccl
.	4a\	.	.
.	4g/	.	.
.	[1al	.	.
=56-	=56-	=56-	=56-
0FF]	0a]	0C]	0cc]
==	==	==	==
*-	*-	*-	*-
!!!system-decoration: g1
!!!RDF**kern: > = above
!!!RDF**kern: < = below
!!!RDF**kern: l = terminal long
!!!AIN: 4 organ
!!!ENC: Filip Voros
!!!END: 2021-12-15
!!!EED: Jędrzej Mróz
!!!EST: 2021-12-21
